X:1
T:Хор охотников
T:Хор охотников
T:из "Волшебный стрелок"
T:К. Вебер
C:К. Вебер
L:1/8
M:2/4
K:A
V:1 treble nm="Piano" snm="Pno."
V:1
!f! uE |: !>!C2 (C/E/)A/B/ | !>!c2 (.A.A) | !>!G2 !>!G2 | .A.E .C.E | !>!C2 (C/E/)A/B/ | !>!c2 AA | %7
 G2 GA | G2 z E :|!mf! !tenuto!uE2 EE | !tenuto!F2 FF | !tenuto!F2 FF | !tenuto!G2 GG | %13
 !tenuto!E2 EE | !tenuto!F2 FF | !tenuto!F2 FF | G2 z!f! uE | A2 AA | A2 AA | G2 (A/G/)F/G/ | %20
 A2 CE | A2 AA | A2 AA | E2 ED | C2 z2 |!f! !>!vE2"_dim." !>!E2 | !>!E2 !>!E2 |:!p! E2 (.C.A) | %28
 E2 (.C.A) | .G.G .G.G | .G.G .G.E | E2 (.C.A) | E2 (.C.A) | .G.G .G.G | .G.G .G.G | %35
 A z"_cresc." !>!uB2 | .A z !>!uB2 |1!f! AC/C/ (.C.E) | !fermata!B4 :|2 cA/A/ AA/A/ | E2!f! uc2 | %41
 !fermata!A,4 |] %42

